!!!!SEGMENT: pl-sa--27-a-i-27--001-003_dankowski-adalbert--vespere-de-confessore-confitebor.krn
!!!cenid: 18xx:328
!!!COM: Dankowski, Adalbert
!!!COM-rismID: pe30000793
!!!CDT: ~1760-~1836
!!!CNT: Polish
!!!OPR: Vespere de confessore
!!!OTL: Confitebor
!!!OMV: 003
!!!PDT: 1815
!!!AGN: Sacred; Vespers
!!!YEC: Copyright 2022 Narodowy Instytut Fryderyka Chopina (https://polishscores.org)
!!!YEM: License CC-BY-4.0 (https://creativecommons.org/licenses/by/4.0)
!!!SMS-siglum: PL-SA
!!!SMS-shelfmark: 27/A I 27
!!!SMS-shelfwork: 001-003 M
!!!SMS-variant:
!!!SMS-altvar:
!!!NIFC-rismSourceID: 1001068242
!!!NIFC-rismChildID: 1001068242
!!!NIFC-islandoraID: none
!!!URL-pdf-islandora:
!!!URL-scan: https://bc.bdsandomierz.pl/dlibra/publication/1260/edition/1228/content @EN{Scan in the Sandomierz Diocese Digital Library} @PL{Skany w portalu Cyfrowa Biblioteka Diecezjalna w Sandomierzu}
!!!IIIF:
!!!ONB-nifc: UWAGA: części Vespere: Domine ad adiuvandum, Dixit dominus, Confitebor, Beatus vir, Laudate Dominum, Magnificat
!!!AIN: 1 alto 1 organ 1 tenor 2 violn 1 vox
!!!key:
**kern	**fba	**dynam	**kern	**dynam	**kern	**dynam	**kern	**text	**kern	**text	**kern	**text
*group3	*	*	*group2	*	*group2	*	*group1	*	*group1	*	*group1	*
*part6	*	*	*part5	*	*part4	*	*part3	*	*part2	*	*part1	*
*staff6	*	*	*staff5	*	*staff4	*	*staff3	*	*staff2	*	*staff1	*
*Iorgan	*	*	*Ivioln	*	*Ivioln	*	*Itenor	*	*Ialto	*	*Ivox	*
*I"Organo	*	*	*I"Violino 2do	*	*I"Violino Primo.	*	*I"Tenore	*	*I"alto	*	*I"Canto	*
*I'Org.	*	*	*I'Vn II	*	*I'vl I	*	*I'T	*	*I'A	*	*I'C	*
*clefF4	*	*	*clefG2	*	*clefG2	*	*clefC4	*	*clefC3	*	*clefC1	*
*	*	*	*	*	*	*	*	*	*	*	*	*
*k[f#]	*	*	*k[f#]	*	*k[f#]	*	*k[f#]	*	*k[f#]	*	*k[f#]	*
*G:	*	*	*G:	*	*G:	*	*G:	*	*G:	*	*G:	*
*M3/4	*	*	*M3/4	*	*M3/4	*	*M3/4	*	*M3/4	*	*M3/4	*
=1	=1	=1	=1	=1	=1	=1	=1	=1	=1	=1	=1	=1
*	*	*	*	*	*2\right	*	*	*	*	*	*2\right	*
!	!	!	!	!	!LO:TX:b:t=Confitebor	!	!	!	!	!	!	!
!LO:TX:b:t=Confitebor	!	!	!LO:TX:b:t=Confitebor	!	!LO:TX:a:t=all(egr)o Moderatto.	!	!LO:N:vis=00	!	!LO:N:vis=00	!	!LO:TX:a:t=Solo.	!
!	!	!LO:DY:a	!LO:TX:a:t=all(egr)o Moderato	!	!	!	!LO:TX:a:t=14.	!	!LO:TX:a:t=9	!	!	!
4G\	.	p	8B/L	.	2dd\	.	0.r	.	0.r	.	2dd\	Con-
.	.	.	8d/J	.	.	.	.	.	.	.	.	.
*	*	*	*rep	*	*	*	*	*	*	*	*	*
4G\	.	.	8B/L	.	.	.	.	.	.	.	.	.
.	.	.	8d/J	.	.	.	.	.	.	.	.	.
*	*	*	*Xrep	*	*	*	*	*	*	*	*	*
*	*	*	*rep	*	*	*	*	*	*	*	*	*
4G\	.	.	8B/L	.	8b/L	.	.	.	.	.	8b\L	-fi-
.	.	.	8d/J	.	8g/J	.	.	.	.	.	8g\J	.
*	*	*	*Xrep	*	*	*	*	*	*	*	*	*
=2	=2	=2	=2	=2	=2	=2	=2	=2	=2	=2	=2	=2
4A\	6| 3:	.	8c/L	.	4.f#/	.	.	.	.	.	4.f#/	-te-
.	.	.	8d/	.	.	.	.	.	.	.	.	.
4A\	.	.	8c/	.	.	.	.	.	.	.	.	.
.	.	.	8d/	.	(16e/LL	.	.	.	.	.	16e/LL	.
.	.	.	.	.	16f#/JJ)	.	.	.	.	.	16f#/JJ	.
4G\	3	.	8B/	.	4g/	.	.	.	.	.	4g/	-bor
.	.	.	8d/J	.	.	.	.	.	.	.	.	.
=3	=3	=3	=3	=3	=3	=3	=3	=3	=3	=3	=3	=3
4F#\	6_ 5_	.	8A/L	.	4a/	.	.	.	.	.	(4a\	Ti-
.	.	.	8d/J	.	.	.	.	.	.	.	.	.
*	*	*	*rep	*	*	*	*	*	*	*	*	*
4F#\	.	.	8A/L	.	4dd\	.	.	.	.	.	4dd\)	.
.	.	.	8d/J	.	.	.	.	.	.	.	.	.
*	*	*	*Xrep	*	*	*	*	*	*	*	*	*
*	*	*	*rep	*	*	*	*	*	*	*	*	*
4F#\	x	.	8A/L	.	4cc\	.	.	.	.	.	4cc`\	-bi
.	.	.	8d/J	.	.	.	.	.	.	.	.	.
!	!	!	!	!	!	!	!	!	!	!	!LO:LB:g=original	!
*	*	*	*Xrep	*	*	*	*	*	*	*	*	*
=4	=4	=4	=4	=4	=4	=4	=4	=4	=4	=4	=4	=4
8.G\L	.	.	8B/L	.	16b/LL	.	.	.	.	.	16b\LL	Do-
.	.	.	.	.	16a/	.	.	.	.	.	16a\JJ	.
.	.	.	8d/J	.	(16b/	.	.	.	.	.	16b\LL	-mi-
16F#\Jk	.	.	.	.	16cc/JJ)	.	.	.	.	.	16cc\JJ	.
8G\L	.	.	8B/L	.	4dd\	.	.	.	.	.	4dd\	-ne
8A\	.	.	8c/	.	.	.	.	.	.	.	.	.
8B\	.	.	8d/	.	4r	.	.	.	.	.	4r	.
8A\J	.	.	8c/J	.	.	.	.	.	.	.	.	.
=5	=5	=5	=5	=5	=5	=5	=5	=5	=5	=5	=5	=5
!	!	!	!	!	!	!	!LO:N:vis=00	!	!LO:N:vis=00	!	!	!
4G\	.	.	8B/L	.	2dd\	.	0.r	.	0.r	.	4dd\	in
.	.	.	8d/J	.	.	.	.	.	.	.	.	.
*	*	*	*rep	*	*	*	*	*	*	*	*	*
4G\	.	.	8B/L	.	.	.	.	.	.	.	4dd\	to-
.	.	.	8d/J	.	.	.	.	.	.	.	.	.
*	*	*	*Xrep	*	*	*	*	*	*	*	*	*
*	*	*	*rep	*	*	*	*	*	*	*	*	*
4G\	.	.	8B/L	.	8b/L	.	.	.	.	.	8b\L	-to
.	.	.	8d/J	.	8g/J	.	.	.	.	.	8g\J	.
*	*	*	*Xrep	*	*	*	*	*	*	*	*	*
=6	=6	=6	=6	=6	=6	=6	=6	=6	=6	=6	=6	=6
4A\	6_ 5_	.	8c/L	.	4.f#/	.	.	.	.	.	4.f#/	Cor-
.	.	.	8d/	.	.	.	.	.	.	.	.	.
4A\	.	.	8c/	.	.	.	.	.	.	.	.	.
.	.	.	8d/	.	16e/LL	.	.	.	.	.	16e/LL	.
.	.	.	.	.	16f#/JJ	.	.	.	.	.	16f#/JJ	.
4G\	3	.	8B/	.	4g/	.	.	.	.	.	4g/	-de
.	.	.	8d/J	.	.	.	.	.	.	.	.	.
!	!	!	!LO:LB:g=original	!	!	!	!	!	!	!	!	!
=7	=7	=7	=7	=7	=7	=7	=7	=7	=7	=7	=7	=7
.	.	.	.	.	8qqb/	.	.	.	.	.	.	.
4F#\	6 5	.	8c/L	.	8a/L	.	.	.	.	.	8a\	to-
.	.	.	8d/	.	16g/L	.	.	.	.	.	16g\LL	-to
.	.	.	.	.	16a/JJ	.	.	.	.	.	16a\JJ	.
4F#\	.	.	8A/	.	4cc\	.	.	.	.	.	4cc\	cor-
.	.	.	8d/	.	.	.	.	.	.	.	.	.
4G\	3	.	8B/	.	4b\	.	.	.	.	.	4b\	-de
.	.	.	8d/J	.	.	.	.	.	.	.	.	.
!LO:LB:g=original	!	!	!	!	!	!	!	!	!	!	!	!
=8	=8	=8	=8	=8	=8	=8	=8	=8	=8	=8	=8	=8
.	.	.	8qqa/	.	.	.	.	.	.	.	.	.
8d\L	4	.	8g/L	.	8b/L	.	.	.	.	.	4b\	me-
8c#X\J	.	.	16f#/L	.	16a/L	.	.	.	.	.	.	.
.	.	.	16g/JJ	.	16b/JJ	.	.	.	.	.	.	.
8d\L	#	.	4f#/	.	4a/	.	.	.	.	.	4a\	-o
8D\	.	.	.	.	.	.	.	.	.	.	.	.
8F#\	.	.	4r	.	4r	.	.	.	.	.	4r	.
8A\J	.	.	.	.	.	.	.	.	.	.	.	.
!	!	!	!	!	!LO:LB:g=original	!	!	!	!	!	!	!
=9	=9	=9	=9	=9	=9	=9	=9	=9	=9	=9	=9	=9
*2\right	*	*	*	*	*	*	*	*	*	*	*	*
*tremolo	*	*	*	*	*	*	*	*	*	*	*	*
*tremolo	*	*	*	*	*	*	*	*	*	*	*	*
!	!	!	!	!	!	!	!LO:N:vis=00	!	!LO:TX:a:t=Solo.	!	!	!
8D\L	.	.	8f#/L	.	8a/L	.	0.r	.	4f#\	In	8a\L	In
8D\	.	.	8e/J	.	16b/L	.	.	.	.	.	16b\L	.
.	.	.	.	.	16cc/JJ	.	.	.	.	.	16cc\JJ	.
8D\	.	.	4.f#/	.	4.dd\	.	.	.	4.f#\	con-	4.dd\	con-
8D\J	.	.	.	.	.	.	.	.	.	.	.	.
*Xtremolo	*	*	*	*	*	*	*	*	*	*	*	*
8D\L	.	.	.	.	.	.	.	.	.	.	.	.
8D\J	7 5	.	8a/	.	8cc\	.	.	.	8a\	.	8cc\	.
!	!	!	!	!	!	!	!	!	!	!	!LO:LB:g=original	!
=10	=10	=10	=10	=10	=10	=10	=10	=10	=10	=10	=10	=10
*tremolo	*	*	*	*	*	*	*	*	*	*	*	*
8G\L	3	.	8a/L	.	8cc\L	.	.	.	8a\	-si-	8cc\	-si-
8G\	.	.	8g/J	.	8b\J	.	.	.	8g\	-li-	8b\	-li-
8G\	.	.	4.b/	.	4.dd\	.	.	.	4.b\	-o	4.dd\	-o
8G\	.	.	.	.	.	.	.	.	.	.	.	.
8G\	.	.	.	.	.	.	.	.	.	.	.	.
8G\J	.	.	16a/LL	.	16cc\LL	.	.	.	16a\LL	ju-	16cc\LL	Ju-
.	.	.	16g/JJ	.	16b\JJ	.	.	.	16g\JJ	.	16b\JJ	.
=11	=11	=11	=11	=11	=11	=11	=11	=11	=11	=11	=11	=11
8D\L	.	.	8g/L	.	8b/L	.	.	.	8g\L	-sto-	8b\L	-sto-
8D\	.	.	8f#/J	.	8a/J	.	.	.	8f#\J	.	8a\J	.
8D\	.	.	4f#/	.	4a/	.	.	.	4f#\	-rum	4a\	-rum
8D\J	.	.	.	.	.	.	.	.	.	.	.	.
*Xtremolo	*	*	*	*	*	*	*	*	*	*	*	*
8F#\L	6_ 5_	.	4a/	.	8dd\L	.	.	.	4a\	et	8dd\L	et
8F#\J	x	.	.	.	8cc\J	.	.	.	.	.	8cc\J	.
=12	=12	=12	=12	=12	=12	=12	=12	=12	=12	=12	=12	=12
*tremolo	*	*	*	*	*	*	*	*	*	*	*	*
8G\L	.	.	8g/L	.	8b\L	.	.	.	8g\L	con-	8b\L	con-
8G\	.	.	8f#/	.	8a\	.	.	.	8f#\	.	8a\	.
8G\	.	.	8g/	.	8b\	.	.	.	8g\	.	8b\	.
8G\	.	.	8a/J	.	8cc\J	.	.	.	8a\J	.	8cc\J	.
8G\	.	.	4b/	.	(16dd\LL	.	.	.	8b\	.	16dd\LL	.
.	.	.	.	.	16ee\	.	.	.	.	.	16ee\JJ	.
8G\J	.	.	.	.	16ff#\	.	.	.	8b\	-gre-	16ff#\LL	-gre-
.	.	.	.	.	16gg\JJ)	.	.	.	.	.	16gg\JJ	.
!	!	!	!	!	!	!	!	!	!LO:LB:g=original	!	!	!
*Xtremolo	*	*	*	*	*	*	*	*	*	*	*	*
=13	=13	=13	=13	=13	=13	=13	=13	=13	=13	=13	=13	=13
!LO:TX:a:t=P:problem= mixed beam	!	!	!	!	!	!	!LO:N:vis=0	!	!	!	!	!
.	.	.	.	.	8qqff#/	.	.	.	.	.	.	.
8c\L	6:	.	8cc/L	.	8ee\L	.	1.r	.	8cc\	-ga-	8ee\	-ga-
8c\	.	.	16b/L	.	16dd\L	.	.	.	16b\LL	-ti-	16dd\LL	-ti-
.	.	.	16a/JJ	.	16cc\JJ	.	.	.	16a\JJ	.	16cc\JJ	.
8d\	4	.	4g/	.	4b/	.	.	.	4a\	-o-	4b\	-o-
8d\	.	.	.	.	.	.	.	.	.	.	.	.
8D/	.	.	4f#/	.	4a/	.	.	.	4f#\	.	4a\	.
8D/J	#	.	.	.	.	.	.	.	.	.	.	.
!	!	!	!LO:LB:g=original	!	!	!	!	!	!	!	!	!
=14	=14	=14	=14	=14	=14	=14	=14	=14	=14	=14	=14	=14
!	!	!	!	!	!	!LO:HP:t=[cres]	!	!	!	!	!	!
4G\	.	.	16g/LL	.	(16b\LL	<	.	.	4g\	-ne	4b\	-ne
.	.	.	16a/	.	16cc\	.	.	.	.	.	.	.
.	.	.	16g/	.	16b\	.	.	.	.	.	.	.
.	.	.	16f#/JJ	.	16a\JJ)	.	.	.	.	.	.	.
4r	.	.	8g`/L	.	8b`\L	.	.	.	4r	.	4r	.
.	.	.	8b`/	.	8dd`\	.	.	.	.	.	.	.
4r	.	.	8cc'/	.	8ee'\	.	.	.	4r	.	4r	.
.	.	.	8a'/J	.	8ff#'\J	[[	.	.	.	.	.	.
=15	=15	=15	=15	=15	=15	=15	=15	=15	=15	=15	=15	=15
*tremolo	*	*	*tremolo	*	*	*	*	*	*	*	*	*
*	*	*	*tremolo	*	*	*	*	*	*	*	*	*
!LO:TX:a:t=Tutti	!	!	!	!	!	!LO:DY:t=for	!	!	!	!	!LO:TX:a:t=Tutti.	!
8G\L	.	.	16B/LL	.	4.gg\	f	4d\	Ma-	4g\	Ma-	4b\	Ma-
.	.	.	16d/	.	.	.	.	.	.	.	.	.
8G\	.	.	16B/	.	.	.	.	.	.	.	.	.
.	.	.	16d/	.	.	.	.	.	.	.	.	.
8G\	.	.	16B/	.	.	.	8d\	-gna	8g\	-gna	8b\	-gna
.	.	.	16d/	.	.	.	.	.	.	.	.	.
8G\	.	.	16B/	.	16b\LL	.	8d\	o-	8g\	o-	8b\	o-
.	.	.	16d/	.	16cc\JJ	.	.	.	.	.	.	.
8G\	.	.	16B/	.	8b\L	.	8d\	-pe-	8g\	-pe-	8b\	-pe-
.	.	.	16d/	.	.	.	.	.	.	.	.	.
8G\J	.	.	16B/	.	8b\J	.	8d\	-ra	8g\	-ra	8b\	-ra
.	.	.	16d/JJ	.	.	.	.	.	.	.	.	.
!	!	!	!	!	!LO:LB:g=original	!	!	!	!	!	!LO:LB:g=original	!
=16	=16	=16	=16	=16	=16	=16	=16	=16	=16	=16	=16	=16
8F#\L	6 5	.	16A/LL	.	8dd\L	.	8d\	Do-	8a\	Do-	8dd\	Do-
.	.	.	16d/	.	.	.	.	.	.	.	.	.
8F#\	.	.	16A/	.	8cc\J	.	8d\	-mi-	8a\	-mi-	8cc\	-mi-
.	.	.	16d/	.	.	.	.	.	.	.	.	.
8F#\	.	.	16A/	.	4aa\	.	8d\	-ni	8a\	-ni	8cc\	-ni
.	.	.	16d/	.	.	.	.	.	.	.	.	.
8F#\	.	.	16A/	.	.	.	8d\	ex-	8a\	ex-	8cc\	ex-
.	.	.	16d/	.	.	.	.	.	.	.	.	.
8F#\	.	.	16A/	.	8r	.	8d\	-qui-	8a\	-qui-	8cc\	-qui-
.	.	.	16d/	.	.	.	.	.	.	.	.	.
8F#\J	.	.	16A/	.	8cc\	.	8d\	-si-	8a\	-si-	8cc\	-si-
.	.	.	16d/JJ	.	.	.	.	.	.	.	.	.
!LO:LB:g=original	!	!	!	!	!	!	!	!	!	!	!	!
=17	=17	=17	=17	=17	=17	=17	=17	=17	=17	=17	=17	=17
8G\L	.	.	16B/LL	.	4.b\	.	8d\	-ta	8g\	-ta	8b\	-ta
.	.	.	16d/	.	.	.	.	.	.	.	.	.
8G\	.	.	16B/	.	.	.	8d\	in	8g\	in	8b\	in
.	.	.	16d/	.	.	.	.	.	.	.	.	.
8G\	.	.	16B/	.	.	.	8d\	om-	8g\	om-	8b\	om-
.	.	.	16d/	.	.	.	.	.	.	.	.	.
8G\	.	.	16B/	.	(16dd\LL	.	8d\	-nes	8g\	-nes	8b\	-nes
.	.	.	16d/	.	16cc\JJ)	.	.	.	.	.	.	.
8G\	.	.	16B/	.	8b`\L	.	8d\	vo-	8g\	vo-	8b\	vo-
.	.	.	16d/	.	.	.	.	.	.	.	.	.
8G\J	.	.	16B/	.	8b`\J	.	8d\	-lun-	8g\	-lun-	8b\	-lun-
.	.	.	16d/JJ	.	.	.	.	.	.	.	.	.
!	!	!	!	!	!	!	!	!	!LO:LB:g=original	!	!	!
=18	=18	=18	=18	=18	=18	=18	=18	=18	=18	=18	=18	=18
8F#\L	6 5	.	16A/LL	.	(8dd\L	.	8d\	-ta-	8a\	-ta-	8dd\	-ta-
.	.	.	16d/	.	.	.	.	.	.	.	.	.
8F#\	.	.	16A/	.	8cc\J)	.	8d\	-tes	8a\	-tes	8cc\	-tes
.	.	.	16d/	.	.	.	.	.	.	.	.	.
*	*	*	*	*	*	*	*2\right	*	*2\right	*	*	*
8F#\	.	.	16A/	.	4aa\	.	2d\	e-	2a\	e-	4.cc\	e-
.	.	.	16d/	.	.	.	.	.	.	.	.	.
8F#\	.	.	16A/	.	.	.	.	.	.	.	.	.
.	.	.	16d/	.	.	.	.	.	.	.	.	.
8F#\	.	.	16A/	.	8r	.	.	.	.	.	.	.
.	.	.	16d/	.	.	.	.	.	.	.	.	.
8F#\J	.	.	16A/	.	8cc\	.	.	.	.	.	16dd\LL	.
.	.	.	16d/JJ	.	.	.	.	.	.	.	16cc\JJ	.
!	!	!	!	!	!	!	!LO:LB:g=original	!	!	!	!	!
=19	=19	=19	=19	=19	=19	=19	=19	=19	=19	=19	=19	=19
8G\L	.	.	16B/LL	.	8b/L	.	4d\	-ius	4g\	-ius	4b\	-ius
.	.	.	16d/	.	.	.	.	.	.	.	.	.
8G\	.	.	16B/	.	16g/L	.	.	.	.	.	.	.
.	.	.	16d/	.	16b/JJ	.	.	.	.	.	.	.
8G\	.	.	16B/	.	8dd\L	.	4r	.	4r	.	4r	.
.	.	.	16d/	.	.	.	.	.	.	.	.	.
8G\	.	.	16B/	.	8dd\J	.	.	.	.	.	.	.
.	.	.	16d/	.	.	.	.	.	.	.	.	.
8G\	.	.	16B/	.	16gg\LL	.	4d\	Con-	4g\	Con-	4b\	Con-
.	.	.	16d/	.	16dd\	.	.	.	.	.	.	.
8G\J	.	.	16B/	.	16cc\	.	.	.	.	.	.	.
.	.	.	16d/JJ	.	16b\JJ	.	.	.	.	.	.	.
*Xtremolo	*	*	*	*	*	*	*	*	*	*	*	*
=20	=20	=20	=20	=20	=20	=20	=20	=20	=20	=20	=20	=20
8d\L	4:	.	16g/LL	.	8.b/L	.	8d\	-feſ-	8g\	-feſ-	8b\	-feſ-
.	.	.	16g/	.	.	.	.	.	.	.	.	.
8d\J	.	.	16g/	.	.	.	8d\	-si-	8g\	-si-	8b\	-si-
.	.	.	16g/JJ	.	32a/LL	.	.	.	.	.	.	.
.	.	.	.	.	32b/JJJ	.	.	.	.	.	.	.
*tremolo	*	*	*	*	*	*	*	*	*	*	*	*
!	!	!	!	!	!LO:TX:a:t=P:problem=niejasna artykulaja	!	!	!	!	!	!	!
8D/L	#	.	16f#/LL	.	8a'/L	.	4d\	-o	4f#\	-o	4a\	-o
.	.	.	16f#/	.	.	.	.	.	.	.	.	.
8D/	.	.	16f#/	.	8d'/	.	.	.	.	.	.	.
.	.	.	16f#/	.	.	.	.	.	.	.	.	.
8D/	.	.	16f#/	.	8f#'/	.	4d\	et	4f#\	et	4a\	et
.	.	.	16f#/	.	.	.	.	.	.	.	.	.
8D/J	.	.	16f#/	.	8a'/J	.	.	.	.	.	.	.
.	.	.	16f#/JJ	.	.	.	.	.	.	.	.	.
!	!	!	!	!	!	!	!	!	!	!	!LO:LB:g=original	!
=21	=21	=21	=21	=21	=21	=21	=21	=21	=21	=21	=21	=21
8F#\L	6 5	.	16d/LL	.	8dd`\L	.	4d\	ma-	4a\	Ma-	4dd\	ma-
.	.	.	16a/	.	.	.	.	.	.	.	.	.
8F#\	.	.	16d/	.	(16ee\L	.	.	.	.	.	.	.
.	.	.	16a/	.	16dd\JJ)	.	.	.	.	.	.	.
8F#\	.	.	16d/	.	8cc\L	.	4d\	-gni-	4a\	-gni-	4cc\	-gni-
.	.	.	16a/	.	.	.	.	.	.	.	.	.
8F#\	.	.	16d/	.	8cc\J	.	.	.	.	.	.	.
.	.	.	16a/	.	.	.	.	.	.	.	.	.
8F#\	.	.	16d/	.	16aa\LL	.	4d\	-fi-	4a\	-fi-	4cc\	-fi-
.	.	.	16a/	.	16ff#\	.	.	.	.	.	.	.
8F#\J	.	.	16d/	.	16dd\	.	.	.	.	.	.	.
.	.	.	16a/JJ	.	16cc\JJ	.	.	.	.	.	.	.
*Xtremolo	*	*	*Xtremolo	*	*	*	*	*	*	*	*	*
=22	=22	=22	=22	=22	=22	=22	=22	=22	=22	=22	=22	=22
!LO:TX:a:t=P:problem= mixed beam	!	!	!	!	!	!	!	!	!	!	!	!
8G\L	4:	.	8.a/L	.	8.cc\L	.	8d\	-cen-	8a\	-cen-	8cc\	-cen-
8G\	.	.	.	.	.	.	8d\	-ti-	8a\	-ti-	8cc\	-ti-
.	.	.	(32b/LL	.	(32dd\LL	.	.	.	.	.	.	.
.	.	.	32a/JJJ)	.	32cc\JJJ	.	.	.	.	.	.	.
!	!	!	!LO:LB:g=original	!	!	!	!	!	!	!	!	!
8GG/	3	.	8g/L	.	8b/L)	.	4d\	-a	4g\	-a	4b\	-a
8GG/	.	.	8d/	.	8g/J	.	.	.	.	.	.	.
!	!	!	!	!	!LO:LB:g=original	!	!	!	!	!	!	!
8G\	.	.	8g/	.	8b`\L	.	8d\	o-	8g\	o-	8b\	o-
8G\J	.	.	8b/J	.	8dd`\J	.	8d\	-pus	8g\	-pus	8b\	-pus
=23	=23	=23	=23	=23	=23	=23	=23	=23	=23	=23	=23	=23
4F#\	6 5	.	8.a/L	.	8.dd\L	.	4d\	e-	4a\	e-	4cc\	e-
.	.	.	32b/LL	.	16cc\Jk	.	.	.	.	.	.	.
.	.	.	32a/JJJ	.	.	.	.	.	.	.	.	.
4G\	.	.	8g/L	.	16b\LL	.	4d\	-jus	4g\	-ius	4b\	-ius
.	.	.	.	.	16gg\	.	.	.	.	.	.	.
.	.	.	8b/J	.	16aa\	.	.	.	.	.	.	.
.	.	.	.	.	16gg\JJ	.	.	.	.	.	.	.
4r	.	.	16dd\LL	.	16ff#\LL	.	4r	.	4r	.	4r	.
.	.	.	16cc\	.	16ee\	.	.	.	.	.	.	.
.	.	.	16b\	.	16dd\	.	.	.	.	.	.	.
.	.	.	16a\JJ	.	16cc\JJ	.	.	.	.	.	.	.
!	!	!	!	!	!	!	!	!	!LO:LB:g=original	!	!	!
=24	=24	=24	=24	=24	=24	=24	=24	=24	=24	=24	=24	=24
*tremolo	*	*	*tremolo	*	*	*	*	*	*	*	*	*
8G\L	.	.	16g/LL	.	8.b\L	.	2B\	et	2g\	et	2b\	et
.	.	.	16g/	.	.	.	.	.	.	.	.	.
8G\	.	.	16g/	.	.	.	.	.	.	.	.	.
.	.	.	16g/	.	(32dd\LL	.	.	.	.	.	.	.
.	.	.	.	.	32cc\JJJ)	.	.	.	.	.	.	.
8G\	.	.	16g/	.	8b`\L	.	.	.	.	.	.	.
.	.	.	16g/	.	.	.	.	.	.	.	.	.
8G\J	.	.	16g/	.	8b`\J	.	.	.	.	.	.	.
.	.	.	16g/	.	.	.	.	.	.	.	.	.
*Xtremolo	*	*	*	*	*	*	*	*	*	*	*	*
8E\L	6|: 3:	.	16g/	.	8.cc#X\L	.	4A\	iu-	4g\	iu-	4cc#X\	ju-
.	.	.	16g/	.	.	.	.	.	.	.	.	.
8E\J	.	.	16g/	.	.	.	.	.	.	.	.	.
.	.	.	16g/JJ	.	(32b\LL	.	.	.	.	.	.	.
.	.	.	.	.	32cc#\JJJ)	.	.	.	.	.	.	.
=25	=25	=25	=25	=25	=25	=25	=25	=25	=25	=25	=25	=25
*tremolo	*	*	*	*	*	*	*	*	*	*	*	*
8D\L	x	.	16f#/LL	.	(8.dd\L	.	4.A\	-sti-	4.f#\	-sti-	4.dd\	-sti-
.	.	.	16a/	.	.	.	.	.	.	.	.	.
8D\	.	.	16f#/	.	.	.	.	.	.	.	.	.
.	.	.	16a/	.	32ff#\LL	.	.	.	.	.	.	.
.	.	.	.	.	32ee\JJJ)	.	.	.	.	.	.	.
8D\	.	.	16f#/	.	8dd`\L	.	.	.	.	.	.	.
.	.	.	16a/	.	.	.	.	.	.	.	.	.
8D\J	.	.	16f#/	.	8dd`\J	.	8A\	-ti-	8f#\	-ti-	8dd\	-ti-
.	.	.	16a/	.	.	.	.	.	.	.	.	.
.	.	.	.	.	8qqdd/	.	.	.	.	.	.	.
*Xtremolo	*	*	*	*	*	*	*	*	*	*	*	*
8F#\L	6: 5:	.	16f#/	.	8ccn\L	.	4d\	-a	4a\	-a	4ccn\	-a
.	.	.	16a/	.	.	.	.	.	.	.	.	.
8F#\J	.	.	16f#/	.	16b\L	.	.	.	.	.	.	.
.	.	.	16a/JJ	.	16cc\JJ	.	.	.	.	.	.	.
!	!	!	!	!	!	!	!LO:LB:g=original	!	!	!	!	!
=26	=26	=26	=26	=26	=26	=26	=26	=26	=26	=26	=26	=26
*tremolo	*	*	*	*	*	*	*	*	*	*	*	*
!	!	!	!	!	!LO:TX:a:t=P:problem=repetycja tt.24-25	!	!	!	!	!	!	!
8G\L	6: 3:	.	16g/LL	.	8.b\Lyy	.	2B\	e-	2g\	e-	2b\	e-
.	.	.	16g/	.	.	.	.	.	.	.	.	.
8G\	.	.	16g/	.	.	.	.	.	.	.	.	.
.	.	.	16g/	.	(32dd\LLyy	.	.	.	.	.	.	.
.	.	.	.	.	32cc\JJJ)yy	.	.	.	.	.	.	.
8G\	.	.	16g/	.	8b`\Lyy	.	.	.	.	.	.	.
.	.	.	16g/	.	.	.	.	.	.	.	.	.
8G\J	.	.	16g/	.	8b`\Jyy	.	.	.	.	.	.	.
.	.	.	16g/	.	.	.	.	.	.	.	.	.
*Xtremolo	*	*	*	*	*	*	*	*	*	*	*	*
8E\L	.	.	16g/	.	8.cc#X\Lyy	.	4A\	-ius	4g\	-ius	4cc#X\	-ius
.	.	.	16g/	.	.	.	.	.	.	.	.	.
8E\J	.	.	16g/	.	.	.	.	.	.	.	.	.
.	.	.	16g/JJ	.	(32b\LLyy	.	.	.	.	.	.	.
.	.	.	.	.	32cc#\JJJ)yy	.	.	.	.	.	.	.
!LO:LB:g=original	!	!	!	!	!	!	!	!	!	!	!	!
=27	=27	=27	=27	=27	=27	=27	=27	=27	=27	=27	=27	=27
*tremolo	*	*	*	*	*	*	*	*	*	*	*	*
8D\L	6 5n	.	16f#/LL	.	(8.dd\Lyy	.	4A\	ma-	4f#\	ma-	4dd\	ma-
.	.	.	16a/	.	.	.	.	.	.	.	.	.
8D\	.	.	16f#/	.	.	.	.	.	.	.	.	.
.	.	.	16a/	.	32ff#\LLyy	.	.	.	.	.	.	.
.	.	.	.	.	32ee\JJJ)yy	.	.	.	.	.	.	.
8D\	.	.	16f#/	.	8dd`\Lyy	.	4A\	-net	4f#\	-net	4dd\	-net
.	.	.	16a/	.	.	.	.	.	.	.	.	.
8D\J	.	.	16f#/	.	8dd`\Jyy	.	.	.	.	.	.	.
.	.	.	16a/	.	.	.	.	.	.	.	.	.
.	.	.	.	.	8qqdd/yy	.	.	.	.	.	.	.
*Xtremolo	*	*	*	*	*	*	*	*	*	*	*	*
8F#\L	.	.	16f#/	.	8ccn\Lyy	.	4d\	in	4a\	in	4ccn\	in
.	.	.	16a/	.	.	.	.	.	.	.	.	.
8F#\J	.	.	16f#/	.	16b\Lyy	.	.	.	.	.	.	.
.	.	.	16a/JJ	.	16cc\JJyy	.	.	.	.	.	.	.
!	!	!	!	!	!	!	!	!	!	!	!LO:LB:g=original	!
=28	=28	=28	=28	=28	=28	=28	=28	=28	=28	=28	=28	=28
8G\L	3:	.	16b/LL	.	8b\L	.	4B\	Sae-	4g\	Sae-	4b\	Sae-
.	.	.	16b/	.	.	.	.	.	.	.	.	.
8G\	.	.	16b/	.	16cc\L	.	.	.	.	.	.	.
.	.	.	16b/	.	16dd\JJ	.	.	.	.	.	.	.
8G\	6:	.	16b/	.	8ee'\L	.	4B\	-cu-	4g\	-cu-	4ee\	.
.	.	.	16b/	.	.	.	.	.	.	.	.	.
8G\	.	.	16b/	.	8ee'\	.	.	.	.	.	.	.
.	.	.	16b/	.	.	.	.	.	.	.	.	.
8G#X\	5:	.	16b/	.	8dd'\	.	4B\	-lum	4f#\	-lum	4dd\	.
.	.	.	16b/	.	.	.	.	.	.	.	.	.
8G#\J	.	.	16b/	.	8dd'\J	.	.	.	.	.	.	.
.	.	.	16b/JJ	.	.	.	.	.	.	.	.	.
=29	=29	=29	=29	=29	=29	=29	=29	=29	=29	=29	=29	=29
8A\L	#_	.	16e/LL	.	8.cc#X\L	.	4A/	{Sae-	4e\	Sae-	4cc#X\	.
.	.	.	16a/	.	.	.	.	.	.	.	.	.
8A\	.	.	16e/	.	.	.	.	.	.	.	.	.
.	.	.	16a/	.	16ee\Jk	.	.	.	.	.	.	.
8Gn\	.	.	16e/	.	8a/L	.	4A/	-cu-	4e\	-cu-	4cc#\	-cu-
.	.	.	16a/	.	.	.	.	.	.	.	.	.
8G\	.	.	16e/	.	16b/L	.	.	.	.	.	.	.
.	.	.	16a/JJ	.	16cc#X/JJ	.	.	.	.	.	.	.
*	*	*	*Xtremolo	*	*	*	*	*	*	*	*	*
8F#\	6:	.	16f#/LL	.	16dd\LL	.	4A/	-lum}	4f#\	-lum	4dd\	-lum
.	.	.	16a/	.	16ee\	.	.	.	.	.	.	.
8F#\J	.	.	16f#/	.	16ff#\	.	.	.	.	.	.	.
.	.	.	16a/JJ	.	16dd\JJ	.	.	.	.	.	.	.
!	!	!	!	!	!LO:LB:g=original	!	!	!	!	!	!	!
=30	=30	=30	=30	=30	=30	=30	=30	=30	=30	=30	=30	=30
!LO:TX:a:t=P:problem= mixed beam	!	!	!	!	!	!	!	!	!	!	!	!
8G\L	6:	.	8.g/L	.	8.ee\L	.	(4B/	Sae-	4g\	Sæ-	4ee\	Sae-
8G\	.	.	.	.	.	.	.	.	.	.	.	.
.	.	.	(32a/LL	.	(32ff#\LL	.	.	.	.	.	.	.
.	.	.	32b/JJJ	.	32gg\JJJ)	.	.	.	.	.	.	.
8A\	4:	.	8a/L)	.	8ff#'\L	.	4A/)	.	4f#\	.	4dd\	.
8A\	.	.	8f#/	.	8dd'\J	.	.	.	.	.	.	.
!	!	!	!	!	!LO:TX:a:t=P:problem= mixed beam	!	!	!	!	!	!	!
8AA/	#	.	8g/	.	8e/L	.	4A/	-cu-	4e\	-cu-	4cc#X\	-cu-
8AA/J	.	.	8e/J	.	8cc#X\J	.	.	.	.	.	.	.
!	!	!	!LO:LB:g=original	!	!	!	!	!	!	!	!	!
=31	=31	=31	=31	=31	=31	=31	=31	=31	=31	=31	=31	=31
!LO:TX:a:t=Solo	!	!	!LO:TX:a:t=P:problem= mixed beam	!	!	!	!	!	!	!	!	!
4D\	.	.	8f#/L	.	8dd\L	.	4A/	-li	4f#\	-li	4dd\	-li
.	.	.	16ff#\L	.	16ff#\L	.	.	.	.	.	.	.
.	.	.	16ee\JJ	.	16ee\JJ	.	.	.	.	.	.	.
4r	.	.	8dd\L	.	8dd/L	.	4r	.	4r	.	4r	.
.	.	.	8a\	.	8a/	.	.	.	.	.	.	.
4r	.	.	8f#\	.	8f#/	.	4r	.	4r	.	4r	.
.	.	.	8a\J	.	8a/J	.	.	.	.	.	.	.
=32	=32	=32	=32	=32	=32	=32	=32	=32	=32	=32	=32	=32
*	*	*	*tremolo	*	*tremolo	*	*	*	*	*	*	*
*	*	*	*	*	*tremolo	*	*	*	*	*	*	*
!	!	!LO:DY:a	!	!LO:DY:a	!	!	!LO:TX:a:t=Solo	!	!LO:TX:a:t=Solo	!	!LO:TX:a:t=12.	!
!	!	!	!	!	!	!LO:DY:t=pp.	!	!	!	!	!LO:N:vis=00	!
4D\	.	p	8d/L	p	8f#/L	pp	8d\L	Me-	8f#\L	Me-	0.r	.
.	.	.	8f#/	.	8a/	.	8f#\J	.	8a\J	.	.	.
!LO:TX:a:t=Memoriam. (innym tuszem)	!	!	!	!	!	!	!	!	!	!	!	!
4D\	.	.	8d/	.	8f#	.	4f#\	-mo-	4a\	-mo-	.	.
.	.	.	8f#/	.	8a/	.	.	.	.	.	.	.
4D\	.	.	8d/	.	8f#/	.	16f#\LL	-ri-	16a\LL	-ri-	.	.
.	.	.	.	.	.	.	16e\JJ	.	16g\JJ	.	.	.
.	.	.	8f#/J	.	8a/J	.	16f#\LL	-am	16a\LL	-am	.	.
.	.	.	.	.	.	.	16g\JJ	.	16b\JJ	.	.	.
!	!	!	!	!	!	!	!LO:LB:g=original	!	!LO:LB:g=original	!	!	!
=33	=33	=33	=33	=33	=33	=33	=33	=33	=33	=33	=33	=33
4r	.	.	8c#X/L	.	(8e/L	.	8f#\L	fe-	8a\L	fe-	.	.
.	.	.	8eX/	.	8g/	.	8e\J	.	8g\J	.	.	.
4A\	7_ #_	.	8c#X/	.	8e/	.	4e\	-cit	4g\	-cit	.	.
.	.	.	8e/	.	8g/	.	.	.	.	.	.	.
4A\	.	.	8c#/	.	8e/	.	16e\LL	mi-	16g\LL	Mi-	.	.
.	.	.	.	.	.	.	16f#\JJ	.	16a\JJ	.	.	.
.	.	.	8e/J	.	8g/)J	.	16e\LL	-ra-	16g\LL	-ra-	.	.
.	.	.	.	.	.	.	16d\JJ	.	16f#\JJ	.	.	.
=34	=34	=34	=34	=34	=34	=34	=34	=34	=34	=34	=34	=34
4r	.	.	8c#X/L	.	(8e/L	.	8c#X\	-bi-	8e\	-bi-	.	.
.	.	.	8eX/	.	8g/	.	8e\	-li-	8g\	-li-	.	.
4AA/	.	.	8c#X/	.	8e/	.	4e\	-um	4g\	-um	.	.
.	.	.	8e/	.	8g/	.	.	.	.	.	.	.
4AA/	.	.	8c#/	.	8e/	.	16e\LL	Su-	16g\LL	Su-	.	.
.	.	.	.	.	.	.	16d\JJ	.	16f#\JJ	.	.	.
.	.	.	8e/J	.	8g/)J	.	16e\LL	.	16g\LL	.	.	.
.	.	.	.	.	.	.	16f#\JJ	.	16a\JJ	.	.	.
!LO:LB:g=original	!	!	!	!	!	!	!	!	!	!	!	!
=35	=35	=35	=35	=35	=35	=35	=35	=35	=35	=35	=35	=35
4r	x	.	8d/L	.	(8f#/L	.	8e\L	-o-	8g\L	-o-	.	.
.	.	.	8f#/	.	8a/	.	8d\J	.	8f#\J	.	.	.
4D\	.	.	8d/	.	8f#/	.	4d\	-rum	4f#\	-rum	.	.
.	.	.	8f#/	.	8a/	.	.	.	.	.	.	.
4D\	.	.	8d/	.	8f#/	.	4r	.	4r	.	.	.
.	.	.	8f#/J	.	8a/)J	.	.	.	.	.	.	.
*	*	*	*Xtremolo	*	*Xtremolo	*	*	*	*	*	*	*
=36	=36	=36	=36	=36	=36	=36	=36	=36	=36	=36	=36	=36
!	!	!	!	!	!	!	!	!	!	!	!LO:N:vis=00	!
4r	.	.	8d/L	.	8f#/L	.	8d\L	mi-	8f#\L	mi-	0.r	.
.	.	.	8c#X/	.	8e/	.	8c#X\J	.	8e\J	.	.	.
4D\	.	.	8d/	.	8f#/	.	8d\L	-se-	8f#\L	-se-	.	.
.	.	.	8f#/	.	8a/	.	8f#\J	.	8a\J	.	.	.
4F#\	6	.	8e/	.	8g/	.	8e\L	-ri-	8g\L	-ri-	.	.
.	.	.	8d/J	.	8f#/J	.	8d\J	.	8f#\J	.	.	.
=37	=37	=37	=37	=37	=37	=37	=37	=37	=37	=37	=37	=37
8A\L	#	.	4.c#X/	.	4.e/	.	2c#X\	-cors	2e\	-cors	.	.
8B\	.	.	.	.	.	.	.	.	.	.	.	.
8A\	.	.	.	.	.	.	.	.	.	.	.	.
8G\	.	.	16B/LL	.	16d/LL	.	.	.	.	.	.	.
.	.	.	16c#/JJ	.	16e/JJ	.	.	.	.	.	.	.
8F#\	6:	.	4d/	.	4f#/	.	4d\	et	4f#\	et	.	.
8D\J	.	.	.	.	.	.	.	.	.	.	.	.
!	!	!	!	!	!	!	!LO:LB:g=original	!	!	!	!	!
=38	=38	=38	=38	=38	=38	=38	=38	=38	=38	=38	=38	=38
8C#X/L	6: 5:	.	4e/	.	4g/	.	8e\	mi-	8g\	mi-	.	.
8BB/	.	.	.	.	.	.	8e\	-se-	8g\	-se-	.	.
8C#/	.	.	16f#/LL	.	16a/LL	.	4e\	-ra-	4g\	-ra-	.	.
.	.	.	16e/	.	(16g/	.	.	.	.	.	.	.
8AA/J	.	.	16d/	.	16f#/	.	.	.	.	.	.	.
.	.	.	16e/JJ	.	16g/JJ)	.	.	.	.	.	.	.
!	!	!	!	!	!LO:TX:a:t=P:problem= mixed beam	!	!	!	!	!LO:MO:mod=tor	!	!
8D\L	.	.	8d/L	.	8f#`/L	.	4d\	-tor	4f#\	-tur	.	.
8F#\J	.	.	8A/J	.	8dd`\J	.	.	.	.	.	.	.
!	!	!	!LO:LB:g=original	!	!	!	!	!	!LO:LB:g=original	!	!	!
=39	=39	=39	=39	=39	=39	=39	=39	=39	=39	=39	=39	=39
4A\	4	.	8d/L	.	8f#/L	.	8d\	Do-	8f#\	Do-	.	.
.	.	.	16c#X/L	.	16e/L	.	16c#X\LL	-mi-	16e\LL	-mi-	.	.
!	!	!	!	!	!LO:LB:g=original	!	!	!	!	!	!	!
.	.	.	16d/JJ	.	16f#/JJ	.	16d\JJ	.	16f#\JJ	.	.	.
4AA/	#	.	8c#X/L	.	8e/L	.	4c#\	-nus	4e\	-nus	.	.
.	.	.	16A/L	.	16c#X/L	.	.	.	.	.	.	.
.	.	.	16B/JJ	.	16d/JJ	.	.	.	.	.	.	.
4r	.	.	8c#X/L	.	16e/LL	.	4r	.	4r	.	.	.
.	.	.	.	.	16f#/	.	.	.	.	.	.	.
.	.	.	8c#/J	.	16g/	.	.	.	.	.	.	.
.	.	.	.	.	16a/JJ	.	.	.	.	.	.	.
=40	=40	=40	=40	=40	=40	=40	=40	=40	=40	=40	=40	=40
*	*	*	*tremolo	*	*tremolo	*	*	*	*	*	*	*
!	!	!	!LO:SIC:s=2.c#	!	!	!	!	!	!	!	!LO:N:vis=00	!
4AA/	#_	.	8c/L	.	8e/L	.	2c#X\	e-	2e\	es-	0.r	.
.	.	.	8e/	.	8a/	.	.	.	.	.	.	.
4A\	.	.	8c/	.	8e/	.	.	.	.	.	.	.
.	.	.	8e/	.	8a/	.	.	.	.	.	.	.
4G\	.	.	8c/	.	8e/	.	8B\L	-scam	8d\L	-cam	.	.
.	.	.	8e/J	.	8a/J	.	8c#\J	.	8e\J	.	.	.
*	*	*	*Xtremolo	*	*Xtremolo	*	*	*	*	*	*	*
=41	=41	=41	=41	=41	=41	=41	=41	=41	=41	=41	=41	=41
4F#\	6	.	8A/L	.	8f#/L	.	4d\	de-	4f#\	de-	.	.
.	.	.	8d/	.	8a/	.	.	.	.	.	.	.
4E\	6|	.	8A/	.	8g/	.	8c#X\L	.	8g\L	.	.	.
.	.	.	8c#X/	.	8a/	.	16B\L	.	16f#\L	.	.	.
.	.	.	.	.	.	.	16c#\JJ	.	16g\JJ	.	.	.
4D\	.	.	8d/	.	8f#/	.	8d\	-dit	8f#\	.	.	.
.	.	.	8f#/J	.	8a/J	.	8f#\	ti-	8a\	-dit	.	.
=42	=42	=42	=42	=42	=42	=42	=42	=42	=42	=42	=42	=42
4G\	6	.	8e/L	.	8g/L	.	8g\L	-men-	8b\L	ti-	.	.
.	.	.	8g/	.	8b/	.	16f#\L	.	16a\L	-men-	.	.
.	.	.	.	.	.	.	16e\JJ	.	16g\JJ	.	.	.
4A\	4	.	8f#/	.	8a/	.	4d\	-ti-	4f#\	-ti-	.	.
.	.	.	8d/	.	8f#/	.	.	.	.	.	.	.
4AA/	#	.	8e/	.	8g/	.	4c#X\	-bus	4e\	-bus	.	.
.	.	.	8c#X/J	.	8e/J	.	.	.	.	.	.	.
!LO:LB:g=original	!	!	!	!	!	!	!LO:LB:g=original	!	!	!	!	!
=43	=43	=43	=43	=43	=43	=43	=43	=43	=43	=43	=43	=43
!	!	!	!	!	!	!LO:HP:t=[cresc]	!	!	!	!	!	!
4D\	.	.	16d/LL	.	16f#/LL	<	4d\	Se	4f#\	Se	.	.
.	.	.	16e/	.	16g/	.	.	.	.	.	.	.
.	.	.	16d/	.	16f#/	.	.	.	.	.	.	.
.	.	.	16c#X/JJ	.	16e/JJ	.	.	.	.	.	.	.
4r	.	.	8d/L	.	8f#'/L	.	4r	.	4r	.	.	.
.	.	.	8f#/	.	8a'/	.	.	.	.	.	.	.
4r	.	.	8g/	.	8b'/	.	4r	.	4r	.	.	.
.	.	.	8e/J	.	8cc#X'/J	[[	.	.	.	.	.	.
=44	=44	=44	=44	=44	=44	=44	=44	=44	=44	=44	=44	=44
*tremolo	*	*	*tremolo	*	*Xtuplet	*	*	*	*	*	*	*
!LO:TX:a:t=Tutti	!	!	!	!LO:DY:a	!	!LO:DY:t=for&colon;	!LO:TX:a:t=Tutti	!	!	!	!	!
8d\L	.	.	16f#/LL	f	8.dd\L	f	2A/	Ut	2f#\	Ut	2dd\	Ut
.	.	.	16a/	.	.	.	.	.	.	.	.	.
8d\	.	.	16f#/	.	.	.	.	.	.	.	.	.
!	!	!	!	!	!LO:TX:a:t=P:problem=niepewna interpretacja rytmu	!	!	!	!	!	!	!
!	!	!	!	!	!LO:TX:a:t=P:problem=brak oznaczenia triol	!	!	!	!	!	!	!
.	.	.	16a/	.	48ee\LL	.	.	.	.	.	.	.
.	.	.	.	.	48dd\	.	.	.	.	.	.	.
.	.	.	.	.	48cc#X\JJJ	.	.	.	.	.	.	.
8d\	.	.	16f#/	.	8dd'\L	.	.	.	.	.	.	.
.	.	.	16a/	.	.	.	.	.	.	.	.	.
8d\	.	.	16f#/	.	8ff#'\	.	.	.	.	.	.	.
.	.	.	16a/	.	.	.	.	.	.	.	.	.
8d\	.	.	16f#/	.	8dd'\	.	4A/	det	4f#\	det	4dd\	det
.	.	.	16a/	.	.	.	.	.	.	.	.	.
8d\J	.	.	16f#/	.	8ff#'\J	.	.	.	.	.	.	.
.	.	.	16a/JJ	.	.	.	.	.	.	.	.	.
=45	=45	=45	=45	=45	=45	=45	=45	=45	=45	=45	=45	=45
8cn\L	4 2	.	16f#/LL	.	8.dd\L	.	2A/	il-	2f#\	il-	2dd\	il-
.	.	.	16a/	.	.	.	.	.	.	.	.	.
8cn\	.	.	16f#/	.	.	.	.	.	.	.	.	.
.	.	.	16a/	.	48ee\LL	.	.	.	.	.	.	.
.	.	.	.	.	48dd\	.	.	.	.	.	.	.
.	.	.	.	.	48cc#X\JJJ	.	.	.	.	.	.	.
8cn\	.	.	16f#/	.	8dd\L	.	.	.	.	.	.	.
.	.	.	16a/	.	.	.	.	.	.	.	.	.
8cn\	.	.	16f#/	.	8ff#\	.	.	.	.	.	.	.
.	.	.	16a/	.	.	.	.	.	.	.	.	.
8cn\	.	.	16f#/	.	8dd\	.	4A/	-lis	4f#\	-lis	4dd\	-lis
.	.	.	16a/	.	.	.	.	.	.	.	.	.
8cn\J	.	.	16f#/	.	8ff#\J	.	.	.	.	.	.	.
.	.	.	16a/JJ	.	.	.	.	.	.	.	.	.
=46	=46	=46	=46	=46	=46	=46	=46	=46	=46	=46	=46	=46
!	!	!	!	!	!	!	!	!LO:MO:mod=hae	!	!	!	!
8B\L	#	.	16f#/LL	.	8.dd#X\L	.	4B\	he-	4f#\	hae-	4dd#X\	hae-
.	.	.	16b/	.	.	.	.	.	.	.	.	.
8B\	.	.	16f#/	.	.	.	.	.	.	.	.	.
.	.	.	16b/	.	(48ee\LL	.	.	.	.	.	.	.
.	.	.	.	.	48dd#\	.	.	.	.	.	.	.
.	.	.	.	.	48cc\JJJ)	.	.	.	.	.	.	.
!	!	!	!	!	!LO:LB:g=original	!	!	!	!	!	!	!
8B\	.	.	16f#/	.	8dd#X\L	.	4B\	-re-	4f#\	-re-	4dd#\	-re-
.	.	.	16b/	.	.	.	.	.	.	.	.	.
8B\	.	.	16f#/	.	8ff#\	.	.	.	.	.	.	.
.	.	.	16b/	.	.	.	.	.	.	.	.	.
8B\	.	.	16f#/	.	8dd#\	.	4B\	-di-	4f#\	-di-	4dd#\	-di-
.	.	.	16b/	.	.	.	.	.	.	.	.	.
8B\J	.	.	16f#/	.	8ff#\J	.	.	.	.	.	.	.
.	.	.	16b/JJ	.	.	.	.	.	.	.	.	.
!	!	!	!LO:LB:g=original	!	!	!	!	!	!LO:PB:g=original	!	!	!
=47	=47	=47	=47	=47	=47	=47	=47	=47	=47	=47	=47	=47
.	.	.	.	.	8qqff#/	.	.	.	.	.	.	.
8B\L	6 4	.	16g/LL	.	8ee\L	.	2B\	-ta-	2g\	-ta-	2ee\	-ta-
.	.	.	16b/	.	.	.	.	.	.	.	.	.
8B\	.	.	16g/	.	16dd#X\L	.	.	.	.	.	.	.
.	.	.	16b/	.	16ee\JJ	.	.	.	.	.	.	.
8B\	.	.	16g/	.	8b'\L	.	.	.	.	.	.	.
.	.	.	16b/	.	.	.	.	.	.	.	.	.
8B\	.	.	16g/	.	8ee'\	.	.	.	.	.	.	.
.	.	.	16b/	.	.	.	.	.	.	.	.	.
8B\	.	.	16g/	.	8gg'\	.	4B\	-tem	4g\	-tem	4ee\	-tem
.	.	.	16b/	.	.	.	.	.	.	.	.	.
8B\J	.	.	16g/	.	8ee'\J	.	.	.	.	.	.	.
.	.	.	16b/JJ	.	.	.	.	.	.	.	.	.
!	!	!	!	!	!	!	!	!	!	!	!LO:LB:g=original	!
*Xtremolo	*	*	*Xtremolo	*	*	*	*	*	*	*	*	*
=48	=48	=48	=48	=48	=48	=48	=48	=48	=48	=48	=48	=48
.	.	.	.	.	8qqff#/	.	.	.	.	.	.	.
4B\	6 4	.	8g/L	.	8ee\L	.	8B\	gen-	8g\	gen-	8ee\	gen-
.	.	.	16f#/L	.	16dd#X\L	.	8B\	-ti-	8g\	-ti-	8ee\	-ti-
.	.	.	16g/JJ	.	16ee\JJ	.	.	.	.	.	.	.
4BB/	5 #	.	8f#/L	.	16dd#X\LL	.	4B\	-um	4f#\	-um	4dd#X\	-um
.	.	.	.	.	16b\	.	.	.	.	.	.	.
.	.	.	8f#/J	.	16cc\	.	.	.	.	.	.	.
.	.	.	.	.	16dd#\JJ	.	.	.	.	.	.	.
4r	.	.	16g/LL	.	16ee\LL	.	4r	.	4r	.	4r	.
.	.	.	16a/	.	16ff#\	.	.	.	.	.	.	.
.	.	.	16b/	.	16gg\	.	.	.	.	.	.	.
.	.	.	16g/JJ	.	16ee\JJ	.	.	.	.	.	.	.
=49	=49	=49	=49	=49	=49	=49	=49	=49	=49	=49	=49	=49
!LO:TX:a:t=P:problem= mixed beam	!	!	!	!	!	!	!	!	!	!	!	!
8B\L	#	.	8f#/	.	8dd#X\	.	8B\	O-	8f#\	O-	8dd#X\	o-
8BB/J	.	.	4f#/	.	4dd#\	.	8B\	-pe-	8f#\	-pe-	8dd#\	-pe-
8B\L	.	.	.	.	.	.	8B\	-ra	8f#\	-ra	8dd#\	-ra
8c#X\	.	.	4f#/	.	4dd#\	.	8B\	ma-	8f#\	ma-	8dd#\	ma-
!	!	!	!	!	!	!	!	!LO:MO:mod=nu	!	!LO:MO:mod=nu	!	!LO:MO:mod=nu
8d#X\	.	.	.	.	.	.	8B\	.	8f#\	.	8dd#\	.
!	!	!	!	!	!	!	!	!LO:MO:mod=um	!	!LO:MO:mod=um	!	!LO:MO:mod=um
8B\J	.	.	8f#/	.	8dd#\	.	8B\	-num	8f#\	-num	8dd#\	-num
!	!	!	!	!	!	!	!LO:LB:g=original	!	!	!	!	!
=50	=50	=50	=50	=50	=50	=50	=50	=50	=50	=50	=50	=50
8e\L	n	.	8g/	.	8ee\	.	4B\	e-	4g\	e-	4ee\	e-
8d\	.	.	4g/	.	4ee\	.	.	.	.	.	.	.
8c\	.	.	.	.	.	.	8B\	-jus	8g\	-ius	8ee\	-ius
8B\	.	.	4g/	.	4ee\	.	8B\	ve-	8g\	ve-	8ee\	ve-
8A\	.	.	.	.	.	.	8B\	-ri-	8g\	-ri-	8ee\	-ri-
8G\J	.	.	8b/	.	8ee\	.	8B\	-tas	8b\	-tas	8ee\	-tas
=51	=51	=51	=51	=51	=51	=51	=51	=51	=51	=51	=51	=51
!LO:TX:a:t=P:problem= mixed beam	!	!	!	!	!	!	!	!	!	!	!	!
8A\L	6:	.	8cc/L	.	16ff#\LL	.	8c\	et	8a\	et	8ff#\	et
.	.	.	.	.	(16aa\	.	.	.	.	.	.	.
8A\	.	.	16b/L	.	16gg\	.	8c\	ju-	8a\	iu-	8ff#\	ju-
.	.	.	16a/JJ	.	16ff#\JJ)	.	.	.	.	.	.	.
!	!	!	!	!	!LO:TX:a:t=P:problem= mixed beam	!	!	!	!	!	!	!
8B\	4:	.	8g/L	.	8ee`\L	.	4B\	-di-	4g\	-di-	4ee\	-di-
8B\	.	.	8e/	.	8g'/	.	.	.	.	.	.	.
!	!	!	!	!	!	!	!	!	!	!LO:MO:mod=ci	!	!LO:MO:mod=ci
8BB/	#	.	8d#X/	.	8f#'/	.	4B\	-ci-	4f#\	-ti-	4dd#X\	ti-
8BB/J	.	.	8f#/J	.	8dd#X`\J	.	.	.	.	.	.	.
!LO:LB:g=original	!	!	!	!	!	!	!	!	!	!	!	!
=52	=52	=52	=52	=52	=52	=52	=52	=52	=52	=52	=52	=52
!	!	!	!	!	!	!	!	!	!	!LO:MO:mod=um	!	!
4E\	.	.	16g/LL	.	16ee\LL	.	4A\	-um	4g\	-am	4ee\	-um
.	.	.	16a/	.	(16ff#\	.	.	.	.	.	.	.
.	.	.	16g/	.	16ee\	.	.	.	.	.	.	.
.	.	.	16f#/JJ	.	16dd#X\JJ)	.	.	.	.	.	.	.
!LO:TX:a:t=Solo.	!	!	!	!	!	!	!	!	!	!	!	!
4r	.	.	8g/L	.	8ee'\L	.	4r	.	4r	.	4r	.
.	.	.	8g/	.	8b'\	.	.	.	.	.	.	.
4r	.	.	8a/	.	8cc'\	.	4r	.	4r	.	4r	.
.	.	.	8f#/J	.	8dd#X'\J	.	.	.	.	.	.	.
!	!	!	!	!	!LO:LB:g=original	!	!	!	!LO:LB:g=original	!	!	!
=53	=53	=53	=53	=53	=53	=53	=53	=53	=53	=53	=53	=53
!	!	!LO:DY:a	!	!	!	!	!LO:TX:a:t=12.	!	!LO:TX:a:t=Solo	!	!LO:TX:a:t=12.	!
!	!	!	!	!	!	!	!LO:N:vis=00	!	!	!	!LO:N:vis=00	!
4E\	.	p	4g/	.	8ee\L	.	0.r	.	8r	.	0.r	.
.	.	.	.	.	8b\J	.	.	.	16e\LL	Fi-	.	.
.	.	.	.	.	.	.	.	.	16d#X\JJ	.	.	.
4E\	.	.	4g/	.	4b\	.	.	.	8e\L	-de-	.	.
.	.	.	.	.	.	.	.	.	8f#\J	.	.	.
4r	.	.	4r	.	4r	.	.	.	8g\	-li-	.	.
.	.	.	.	.	.	.	.	.	8a\	-a	.	.
!	!	!	!LO:PB:g=original	!	!	!	!	!	!	!	!	!
=54	=54	=54	=54	=54	=54	=54	=54	=54	=54	=54	=54	=54
8r	.	.	4r	.	8r	.	.	.	4.b\	om-	.	.
!	!	!	!	!	!	!LO:DY:a	!	!	!	!	!	!
!	!	!	!	!	!	!LO:DY:t=pia	!	!	!	!	!	!
16D/LL	6_ 5_	.	.	.	16f#/LL	p	.	.	.	.	.	.
16C#X/JJ	.	.	.	.	16e/JJ	.	.	.	.	.	.	.
!	!	!	!	!LO:DY:a	!	!	!	!	!	!	!	!
8D/L	.	.	4B/	p	8f#/L	.	.	.	.	.	.	.
8BB/J	.	.	.	.	8a/	.	.	.	8a\	-ni-	.	.
!LO:TX:a:t=P:problem= mixed beam	!	!	!	!	!	!	!	!	!	!	!	!
8E\L	.	.	4B/	.	8g/	.	.	.	4g\	-a	.	.
8EE/J	.	.	.	.	8e/J	.	.	.	.	.	.	.
=55	=55	=55	=55	=55	=55	=55	=55	=55	=55	=55	=55	=55
4AA/	6	.	4c/	.	4f#/	.	.	.	8a\L	man-	.	.
.	.	.	.	.	.	.	.	.	16b\L	.	.	.
.	.	.	.	.	.	.	.	.	16cc\JJ	.	.	.
4BB/	#	.	4B/	.	8g/L	.	.	.	8b\L	-da-	.	.
.	.	.	.	.	8f#/	.	.	.	8a\J	.	.	.
4BB/	#	.	4B/	.	8e/	.	.	.	8g\L	-ta	.	.
.	.	.	.	.	8d#X/J	.	.	.	8f#\J	.	.	.
=56	=56	=56	=56	=56	=56	=56	=56	=56	=56	=56	=56	=56
8E\L	.	.	8G/L	.	8e/L	.	.	.	4e\	e-	.	.
16E\L	.	.	8B/J	.	16e/L	.	.	.	.	.	.	.
16D#X\JJ	.	.	.	.	16f#/JJ	.	.	.	.	.	.	.
8E\L	.	.	8g/L	.	8g/L	.	.	.	4e\	-jus	.	.
8F#\	.	.	8a/	.	8a/	.	.	.	.	.	.	.
8G\	.	.	8b/	.	8b/	.	.	.	4r	.	.	.
8F#\J	.	.	8a/J	.	8a/J	.	.	.	.	.	.	.
=57	=57	=57	=57	=57	=57	=57	=57	=57	=57	=57	=57	=57
*tremolo	*	*	*tremolo	*	*tremolo	*	*	*	*	*	*	*
!	!	!	!	!	!	!	!LO:N:vis=00	!	!	!	!LO:N:vis=00	!
8E\L	.	.	8g/L	.	8g/L	.	0.r	.	2e\	Con-	0.r	.
8E\	.	.	8e/J	.	8g/	.	.	.	.	.	.	.
8E\	.	.	8e/L	.	8g/	.	.	.	.	.	.	.
8E\J	.	.	8e/	.	8g/J	.	.	.	.	.	.	.
*Xtremolo	*	*	*	*	*Xtremolo	*	*	*	*	*	*	*
8Dn\L	4 2	.	8e/	.	8g#X/L	.	.	.	8f#\L	-fir-	.	.
8D\J	.	.	8e/J	.	8g#/J	.	.	.	8g#X\J	.	.	.
=58	=58	=58	=58	=58	=58	=58	=58	=58	=58	=58	=58	=58
*tremolo	*	*	*	*	*tremolo	*	*	*	*	*	*	*
8C/L	6	.	8e/L	.	8a/L	.	.	.	8g\L	-ma-	.	.
8C/	.	.	8e/	.	8a/	.	.	.	8a\J	.	.	.
8C/	.	.	8e/	.	8a/	.	.	.	4a\	-ta	.	.
8C/J	.	.	8e/	.	8a/J	.	.	.	.	.	.	.
*Xtremolo	*	*	*	*	*Xtremolo	*	*	*	*	*	*	*
8C#X/L	5n_	.	8e/	.	8gn/L	.	.	.	8r	.	.	.
8C#/J	.	.	8e/J	.	8g/J	.	.	.	8gn\	in	.	.
!LO:LB:g=original	!	!	!	!	!	!	!	!	!LO:LB:g=original	!	!	!
=59	=59	=59	=59	=59	=59	=59	=59	=59	=59	=59	=59	=59
*tremolo	*	*	*	*	*tremolo	*	*	*	*	*	*	*
8D/L	#	.	8dn/L	.	8f#/L	.	.	.	4f#\	Sae-	.	.
8D/	.	.	8dn/	.	8f#/	.	.	.	.	.	.	.
8D/	.	.	8dn/	.	8f#/	.	.	.	4d\	-cu-	.	.
8D/J	.	.	8dn/	.	8f#/	.	.	.	.	.	.	.
*Xtremolo	*	*	*	*	*	*	*	*	*	*	*	*
8Cn/L	.	.	8dn/	.	8f#/	.	.	.	8e\L	-lum	.	.
8C/J	.	.	8dn/J	.	8f#/J	.	.	.	8f#\J	.	.	.
=60	=60	=60	=60	=60	=60	=60	=60	=60	=60	=60	=60	=60
*tremolo	*	*	*	*	*	*	*	*	*	*	*	*
8BB/L	6	.	8d/L	.	8g/L	.	.	.	8f#\	Sae-	.	.
8BB/	.	.	8d/	.	8g/	.	.	.	8g\	-cu-	.	.
8BB/	.	.	8d/	.	8g/	.	.	.	4g\	-li	.	.
8BB/	.	.	8d/	.	8g/	.	.	.	.	.	.	.
8BB/	.	.	8d/	.	8g/	.	.	.	8r	.	.	.
8BB/J	.	.	8d/J	.	8g/J	.	.	.	8g\	fa-	.	.
=61	=61	=61	=61	=61	=61	=61	=61	=61	=61	=61	=61	=61
!	!	!	!	!	!	!	!LO:N:vis=00	!	!	!	!LO:N:vis=00	!
8C/L	6	.	8e/L	.	8a/L	.	0.r	.	16b\LL	-cta	0.r	.
.	.	.	.	.	.	.	.	.	16a\JJ	.	.	.
8C/	.	.	8e/	.	8a/	.	.	.	16g\LL	in	.	.
.	.	.	.	.	.	.	.	.	16a\JJ	.	.	.
8C/	.	.	8e/	.	8a/	.	.	.	4.cc\	ve-	.	.
8C/J	.	.	8e/J	.	8a/	.	.	.	.	.	.	.
*Xtremolo	*	*	*Xtremolo	*	*	*	*	*	*	*	*	*
8D/L	#:	.	8f#/L	.	8a/	.	.	.	.	.	.	.
8D/J	.	.	8f#/J	.	8a/J	.	.	.	16a\LL	-ri-	.	.
.	.	.	.	.	.	.	.	.	16f#\JJ	.	.	.
=62	=62	=62	=62	=62	=62	=62	=62	=62	=62	=62	=62	=62
*tremolo	*	*	*	*	*	*	*	*	*	*	*	*
8G\L	.	.	8g/L	.	8b/L	.	.	.	8f#\L	-ta-	.	.
8G\	.	.	8g/J	.	8b/	.	.	.	8g\J	.	.	.
*	*	*	*tremolo	*	*	*	*	*	*	*	*	*
8G\	.	.	8d/L	.	8b/	.	.	.	4.g\	-te	.	.
8G\	.	.	8d/	.	8b/	.	.	.	.	.	.	.
8G\	.	.	8d/	.	8b/	.	.	.	.	.	.	.
8G\J	.	.	8d/J	.	8b/J	.	.	.	16a\LL	et	.	.
.	.	.	.	.	.	.	.	.	16b\JJ	.	.	.
*	*	*	*	*	*Xtremolo	*	*	*	*	*	*	*
*Xtremolo	*	*	*Xtremolo	*	*Xtremolo	*	*	*	*	*	*	*
!	!	!	!	!	!LO:PB:g=original	!	!	!	!	!	!	!
=63	=63	=63	=63	=63	=63	=63	=63	=63	=63	=63	=63	=63
!LO:TX:a:t=P:problem= mixed beam	!	!	!	!	!	!	!	!	!	!	!	!
8c\L	6:	.	8e/L	.	8cc\L	.	.	.	8cc\	ae-	.	.
8c\	.	.	8a/J	.	16ee\L	.	.	.	16b\LL	-qui-	.	.
.	.	.	.	.	16cc\JJ	.	.	.	16cc\JJ	.	.	.
!	!	!	!LO:LB:g=original	!	!	!	!	!	!	!	!	!
8d\	4:	.	4g/	.	4b/	.	.	.	4dd\	-ta-	.	.
8d\	.	.	.	.	.	.	.	.	.	.	.	.
8D/	#	.	4f#/	.	4a/	.	.	.	4d\	.	.	.
8D/J	.	.	.	.	.	.	.	.	.	.	.	.
!	!	!	!	!	!	!	!	!	!LO:LB:g=original	!	!	!
=64	=64	=64	=64	=64	=64	=64	=64	=64	=64	=64	=64	=64
4G\	.	.	8g/L	.	8b'\L	.	.	.	4g\	-te	.	.
.	.	.	8b/J	.	8dd'\	.	.	.	.	.	.	.
!	!	!	!	!	!	!LO:HP:t=[cresc]	!	!	!	!	!	!
4r	.	.	8cc'\L	.	8ee'\	<	.	.	4r	.	.	.
.	.	.	8b'\	.	8dd'\	.	.	.	.	.	.	.
4r	.	.	8cc'\	.	8ee'\	.	.	.	4r	.	.	.
.	.	.	8a'\J	.	8ff#'\J	[[	.	.	.	.	.	.
!	!	!	!	!	!	!	!	!	!	!	!LO:LB:g=original	!
=65	=65	=65	=65	=65	=65	=65	=65	=65	=65	=65	=65	=65
!LO:TX:a:t=Tutti.	!	!	!	!	!	!	!	!	!	!	!	!
!	!	!	!	!	!	!LO:DY:t=for	!	!	!	!	!	!
4G\	.	.	8b`\L	f	8gg'\L	f	4d\	Re-	4g\	Re-	4b\	Re-
.	.	.	8dd`\	.	8ff#'\	.	.	.	.	.	.	.
4GG/	.	.	8cc'\	.	8ee'\	.	4d\	-dem-	4g\	-dem-	4b\	-dem-
.	.	.	8b'\	.	8dd'\	.	.	.	.	.	.	.
4G\	.	.	8a'\	.	8cc'\	.	4d\	-pti-	4g\	-pti-	4b\	-pti-
.	.	.	8g'\J	.	8b'\J	.	.	.	.	.	.	.
=66	=66	=66	=66	=66	=66	=66	=66	=66	=66	=66	=66	=66
4d\	4	.	8g/L	.	8b\L	.	4d\	-o-	4g\	-o-	4b\	-o-
.	.	.	16a/L	.	(16cc\L	.	.	.	.	.	.	.
.	.	.	16g/JJ	.	16b\JJ)	.	.	.	.	.	.	.
4D\	#	.	8f#/L	.	8a\L	.	4d\	-nem	4g\	-nem	4a\	-nem
.	.	.	16g/L	.	16b\L	.	.	.	.	.	.	.
.	.	.	16a/JJ	.	16cc\JJ	.	.	.	.	.	.	.
4r	.	.	16b\LL	.	16dd\LL	.	4r	.	4r	.	4r	.
.	.	.	16cc\	.	16ee\	.	.	.	.	.	.	.
.	.	.	16dd\	.	16ff#\	.	.	.	.	.	.	.
.	.	.	16ee\JJ	.	16gg\JJ	.	.	.	.	.	.	.
=67	=67	=67	=67	=67	=67	=67	=67	=67	=67	=67	=67	=67
4D\	.	.	8ff#`\L	.	8aa'\L	.	8d\	mi-	8a\	mi-	8cc\	mi-
.	.	.	8ee'\	.	8gg'\	.	8d\	-sit	8a\	-sit	8cc\	-sit
4F#\	6_ 5_	.	8dd'\	.	8ff#'\	.	4d\	po-	4a\	po-	4cc\	po-
.	.	.	8cc'\	.	8ee'\	.	.	.	.	.	.	.
!	!	!	!	!	!	!	!LO:LB:g=original	!	!	!	!	!
4F#\	.	.	8b'\	.	8dd'\	.	8d\	-pu-	8a\	-pu-	8cc\	-pu-
.	.	.	8a'\J	.	8cc'\J	.	8d\	-lo	8a\	-lo	8cc\	-lo
!LO:LB:g=original	!	!	!	!	!	!	!	!	!	!	!	!
=68	=68	=68	=68	=68	=68	=68	=68	=68	=68	=68	=68	=68
4G\	4	.	8a/L	.	8cc\L	.	4d\	Su-	4a\	Su-	4cc\	Su-
.	.	.	16b/L	.	16dd\L	.	.	.	.	.	.	.
.	.	.	16a/JJ	.	16cc\JJ	.	.	.	.	.	.	.
4GG/	3	.	16g/LL	.	16b/LL	.	4d\	-o	4g\	-o	4b\	-o
.	.	.	16f#/	.	16a/	.	.	.	.	.	.	.
.	.	.	16g/	.	16b/	.	.	.	.	.	.	.
.	.	.	16a/JJ	.	16cc/JJ	.	.	.	.	.	.	.
4r	.	.	8b/L	.	8dd'\L	.	4r	.	4r	.	4r	.
.	.	.	8b/J	.	8dd'\J	.	.	.	.	.	.	.
!	!	!	!LO:LB:g=original	!	!	!	!	!	!	!	!	!
=69	=69	=69	=69	=69	=69	=69	=69	=69	=69	=69	=69	=69
4A\	5 4#	.	4.a/	.	(8dd\L	.	4e\	Man-	4e\	man-	8dd\L	Man-
.	.	.	.	.	8cc#X\J)	.	.	.	.	.	8cc#X\J	.
4F#\	6 5n	.	.	.	8ccn\L	.	4d\	-da-	4a\	-da-	4ccn\	-da-
.	.	.	16b/LL	.	16dd\L	.	.	.	.	.	.	.
.	.	.	16a/JJ	.	16cc\JJ	.	.	.	.	.	.	.
4G\	3	.	8g/L	.	8b'\L	.	4d\	-vit	4g\	-vit	4b\	-vit
.	.	.	8b/J	.	8dd`\J	.	.	.	.	.	.	.
!	!	!	!	!	!LO:LB:g=original	!	!	!	!LO:LB:g=original	!	!	!
=70	=70	=70	=70	=70	=70	=70	=70	=70	=70	=70	=70	=70
4A\	5 4#	.	4.a/	.	8dd\L	.	4e\	in	4e\	in	8dd\L	in
.	.	.	.	.	8cc#X\J	.	.	.	.	.	8cc#X\J	.
4F#\	6 5n	.	.	.	8ccn\L	.	4d\	.	4a\	.	4ccn\	ae-
.	.	.	8dd\L	.	(16dd\L	.	.	.	.	.	.	.
.	.	.	.	.	16cc\JJ)	.	.	.	.	.	.	.
4G\	3	.	8b\	.	8b\L	.	4d\	e-	4g\	ae-	4b\	.
.	.	.	8dd\J	.	8gg\J	.	.	.	.	.	.	.
=71	=71	=71	=71	=71	=71	=71	=71	=71	=71	=71	=71	=71
!	!	!	!LO:TX:a:t=P:problem=brak taktu	!	!	!	!	!	!	!	!	!
4d\	#:	.	2.ryy	.	16gg\LL	.	4d\	-ter-	4f#\	-ter-	4a\	-ter-
.	.	.	.	.	(16ff#\	.	.	.	.	.	.	.
.	.	.	.	.	16ee\	.	.	.	.	.	.	.
.	.	.	.	.	16ff#\JJ)	.	.	.	.	.	.	.
4c\	.	.	.	.	8dd'\L	.	4d\	-num	4f#\	-num	4a\	-num
.	.	.	.	.	8ff#'\J	.	.	.	.	.	.	.
4B\	6	.	.	.	8dd`\L	.	8d\	tes-	8g\	tes-	8b\	tes-
.	.	.	.	.	(16gg\L	.	8d\	-ta-	8g\	-ta-	8b\	-ta-
.	.	.	.	.	16ffn\JJ)	.	.	.	.	.	.	.
!	!	!	!	!	!	!	!	!	!	!	!LO:LB:g=original	!
=72	=72	=72	=72	=72	=72	=72	=72	=72	=72	=72	=72	=72
4c\	6	.	8cc\L	.	8ee\L	.	8e\	-men-	8a\	-men-	8cc\	-men-
.	.	.	16b\L	.	16dd\L	.	8e\	-tum	8a\	-tum	8cc\	-tum
.	.	.	16a\JJ	.	16cc\JJ	.	.	.	.	.	.	.
4d\	4	.	8g/L	.	8b\L	.	2d\	Su-	4g\	Su-	4b\	Su-
.	.	.	8b/	.	8gg\	.	.	.	.	.	.	.
4D\	#	.	8f#/	.	8a\	.	.	.	4f#\	.	4a\	.
.	.	.	8a/J	.	8ff#\J	.	.	.	.	.	.	.
=73	=73	=73	=73	=73	=73	=73	=73	=73	=73	=73	=73	=73
4G\	.	.	8b/L	.	8gg\L	.	4d\	-um	4g\	-um	4b\	-um
.	.	.	16g/L	.	16b\L	.	.	.	.	.	.	.
.	.	.	16a/JJ	.	16cc\JJ	.	.	.	.	.	.	.
4r	.	.	8b/L	.	8dd\L	.	4r	.	4r	.	4r	.
.	.	.	8cc/	.	8ee\	.	.	.	.	.	.	.
4r	.	.	8b/	.	8dd\	.	4r	.	4r	.	4r	.
.	.	.	8a/J	.	8cc\J	.	.	.	.	.	.	.
!	!	!	!	!	!	!	!LO:PB:g=original	!	!	!	!	!
=74	=74	=74	=74	=74	=74	=74	=74	=74	=74	=74	=74	=74
*tremolo	*	*	*	*	*	*	*	*	*	*	*	*
!	!	!	!	!LO:DY:a	!	!	!LO:TX:a:t=6	!	!LO:TX:a:t=Solo.	!	!LO:TX:a:t=Solo	!
!	!	!	!	!	!	!	!LO:N:vis=00	!	!	!	!	!
8G\L	3	.	4g/	p	4b`\	pp	0.r	.	4g\	Glo-	4b\	Glo-
8G\	.	.	.	.	.	.	.	.	.	.	.	.
8G\	.	.	4g/	.	(4b\	.	.	.	4g\	-ri-	4b\	-ri-
8G\J	.	.	.	.	.	.	.	.	.	.	.	.
*Xtremolo	*	*	*	*	*	*	*	*	*	*	*	*
8G\L	4: 2:	.	4a/	.	4cc\)	.	.	.	4a\	-a	4cc\	-a
8G\J	.	.	.	.	.	.	.	.	.	.	.	.
=75	=75	=75	=75	=75	=75	=75	=75	=75	=75	=75	=75	=75
*tremolo	*	*	*	*	*	*	*	*	*	*	*	*
8G\L	5 3	.	4.b/	.	4.dd\	.	.	.	4.b\	Pa-	4.dd\	Pa-
8G\	.	.	.	.	.	.	.	.	.	.	.	.
8G\	.	.	.	.	.	.	.	.	.	.	.	.
8G\J	.	.	16a/LL	.	(16cc\LL	.	.	.	16a\LL	.	(16cc\LL	.
.	.	.	16b/JJ	.	16dd\JJ)	.	.	.	16cc\JJ	.	16dd\JJ)	.
*Xtremolo	*	*	*	*	*	*	*	*	*	*	*	*
8G\L	4: 2:	.	8cc\L	.	8ee`\L	.	.	.	8cc\	-tri	8ee\	-tri
8G\J	.	.	8a\J	.	8cc`\J	.	.	.	8a\	et	8cc\	et
!	!	!	!	!	!	!	!	!	!LO:LB:g=original	!	!	!
=76	=76	=76	=76	=76	=76	=76	=76	=76	=76	=76	=76	=76
*tremolo	*	*	*	*	*	*	*	*	*	*	*	*
8G\L	3	.	8a/L	.	(8cc\L	.	.	.	8a\	Fi-	8cc\	Fi-
8G\	.	.	8g/J	.	8b\J)	.	.	.	8g\	-li-	8b\	-li-
8G\	.	.	4g/	.	4b\	.	.	.	4g\	-o	4b\	-o
8G\	.	.	.	.	.	.	.	.	.	.	.	.
.	.	.	8qqcc/	.	8qqee/	.	.	.	.	.	.	.
8G\	.	.	8b/L	.	8dd\L	.	.	.	8b\	et	8dd\	et
8G\J	.	.	16a/L	.	16cc\L	.	.	.	16a\LL	Spi-	16cc\LL	Spi-
.	.	.	16g/JJ	.	16b\JJ	.	.	.	16g\JJ	.	16b\JJ	.
!LO:LB:g=original	!	!	!LO:LB:g=original	!	!LO:LB:g=original	!	!	!	!	!	!	!
*Xtremolo	*	*	*	*	*	*	*	*	*	*	*	*
=77	=77	=77	=77	=77	=77	=77	=77	=77	=77	=77	=77	=77
*tremolo	*	*	*	*	*	*	*	*	*	*	*	*
8D\L	.	.	4.f#/	.	4.a/	.	.	.	4.f#\	-ri-	4.a\	-ri-
8D\	.	.	.	.	.	.	.	.	.	.	.	.
8D\	.	.	.	.	.	.	.	.	.	.	.	.
8D\J	.	.	16g/LL	.	16b/LL	.	.	.	16g\LL	.	(16b\LL	.
.	.	.	16a/JJ	.	16cc/JJ	.	.	.	16b\JJ	.	16cc\JJ)	.
*Xtremolo	*	*	*	*	*	*	*	*	*	*	*	*
8G\L	.	.	8g/L	.	8b`\L	.	.	.	8g\	-tu-	8b\	-tu-
8G\J	.	.	8b/J	.	8dd`\J	.	.	.	8b\	-i	8dd\	-i
!	!	!	!	!	!	!	!	!	!	!	!LO:LB:g=original	!
=78	=78	=78	=78	=78	=78	=78	=78	=78	=78	=78	=78	=78
!LO:TX:a:t=P:problem= mixed beam	!	!	!	!	!	!	!LO:N:vis=0	!	!	!	!	!
8c\L	6:	.	16a/LL	.	(16cc\LL	.	1.r	.	4a\	San-	4cc\	.
.	.	.	16cc/	.	16ee\	.	.	.	.	.	.	.
8c\	.	.	16b/	.	16dd\	.	.	.	.	.	.	.
.	.	.	16a/JJ	.	16cc\JJ)	.	.	.	.	.	.	.
8d\	4:	.	4g/	.	4b/	.	.	.	4g\	.	4b\	.
8d\	.	.	.	.	.	.	.	.	.	.	.	.
8D/	#	.	4f#/	.	4a/	.	.	.	4f#\	.	4a\	San-
8D/J	.	.	.	.	.	.	.	.	.	.	.	.
=79	=79	=79	=79	=79	=79	=79	=79	=79	=79	=79	=79	=79
!	!	!	!	!	!	!LO:HP:t=[cresc]	!	!	!	!LO:MO:mod=c z haczykiem	!	!
4G\	.	.	8g/L	.	8b/L	<	.	.	4g\	-cto	4b\	-cto
.	.	.	16f#/L	.	16a/L	.	.	.	.	.	.	.
.	.	.	16g/JJ	.	16b/JJ	.	.	.	.	.	.	.
4r	.	.	8a/L	.	8cc\L	.	.	.	4r	.	4r	.
.	.	.	8b/	.	8dd\	.	.	.	.	.	.	.
4r	.	.	8cc/	.	8ee\	.	.	.	4r	.	4r	.
.	.	.	8a/J	.	8ff#\J	[[	.	.	.	.	.	.
=80	=80	=80	=80	=80	=80	=80	=80	=80	=80	=80	=80	=80
*tremolo	*	*	*	*	*	*	*	*	*	*	*	*
!LO:TX:a:t=Tutti	!	!	!	!LO:DY:a	!	!LO:DY:t=for	!	!	!LO:TX:a:t=Tutti	!	!	!
8G\L	.	.	16B/LL	f	8gg\L	f	8d\	Si-	8g\	Si-	8b\	Si-
.	.	.	16d/	.	.	.	.	.	.	.	.	.
8G\	.	.	16B/	.	16dd\L	.	8d\	-cut	8g\	-cut	8b\	-cut
.	.	.	16d/JJ	.	16b\JJ	.	.	.	.	.	.	.
*	*	*	*tremolo	*	*	*	*	*	*	*	*	*
8G\	.	.	16B/LL	.	8g'/L	.	4d\	e-	4g\	e-	4b\	e-
.	.	.	16d/	.	.	.	.	.	.	.	.	.
8G\	.	.	16B/	.	8d'/	.	.	.	.	.	.	.
.	.	.	16d/	.	.	.	.	.	.	.	.	.
8G\	.	.	16B/	.	8g'/	.	4d\	-rat	4g\	-rat	4b\	-rat
.	.	.	16d/	.	.	.	.	.	.	.	.	.
8G\J	.	.	16B/	.	8b'/J	.	.	.	.	.	.	.
.	.	.	16d/JJ	.	.	.	.	.	.	.	.	.
!	!	!	!	!	!	!	!	!	!LO:LB:g=original	!	!	!
=81	=81	=81	=81	=81	=81	=81	=81	=81	=81	=81	=81	=81
8F#\L	6 5	.	16A/LL	.	8.dd\L	.	8d\	in	8a\	in	8cc\	in
.	.	.	16d/	.	.	.	.	.	.	.	.	.
8F#\	.	.	16A/	.	.	.	8d\	prin-	8a\	prin-	8cc\	prin-
.	.	.	16d/	.	16cc\Jk	.	.	.	.	.	.	.
8F#\	.	.	16A/	.	4cc`\	.	4d\	-ci-	4a\	-ci-	4cc\	-ci-
.	.	.	16d/	.	.	.	.	.	.	.	.	.
8F#\	.	.	16A/	.	.	.	.	.	.	.	.	.
.	.	.	16d/	.	.	.	.	.	.	.	.	.
8F#\	.	.	16A/	.	8r	.	8d\	-pi-	8a\	-pi-	8cc\	-pi-
.	.	.	16d/	.	.	.	.	.	.	.	.	.
8F#\J	.	.	16A/	.	8a/	.	8d\	-o	8a\	-o	8cc\	-o
.	.	.	16d/JJ	.	.	.	.	.	.	.	.	.
=82	=82	=82	=82	=82	=82	=82	=82	=82	=82	=82	=82	=82
8G\L	.	.	16B/LL	.	8b\L	.	4d\	et	4g\	et	4b\	et
.	.	.	16d/	.	.	.	.	.	.	.	.	.
8G\	.	.	16B/	.	16dd\L	.	.	.	.	.	.	.
.	.	.	16d/	.	16b\JJ	.	.	.	.	.	.	.
8G\	.	.	16B/	.	8g/L	.	4d\	nunc	4g\	nunc	4b\	nunc
.	.	.	16d/	.	.	.	.	.	.	.	.	.
8G\	.	.	16B/	.	8d/	.	.	.	.	.	.	.
.	.	.	16d/	.	.	.	.	.	.	.	.	.
8G\	.	.	16B/	.	8g/	.	4d\	et	4g\	et	4b\	et
.	.	.	16d/	.	.	.	.	.	.	.	.	.
8G\J	.	.	16B/	.	8b/J	.	.	.	.	.	.	.
.	.	.	16d/JJ	.	.	.	.	.	.	.	.	.
=83	=83	=83	=83	=83	=83	=83	=83	=83	=83	=83	=83	=83
8F#\L	6 5	.	16A/LL	.	8.dd\L	.	4d\	Sem-	4a\	Sem-	4cc\	Sem-
.	.	.	16d/	.	.	.	.	.	.	.	.	.
8F#\	.	.	16A/	.	.	.	.	.	.	.	.	.
.	.	.	16d/	.	16cc\Jk	.	.	.	.	.	.	.
8F#\	.	.	16A/	.	4cc\	.	4d\	-per	4a\	-per	4cc\	-per
.	.	.	16d/	.	.	.	.	.	.	.	.	.
8F#\	.	.	16A/	.	.	.	.	.	.	.	.	.
.	.	.	16d/	.	.	.	.	.	.	.	.	.
8F#\	.	.	16A/	.	8r	.	8d\	et	8a\	et	8cc\	et
.	.	.	16d/	.	.	.	.	.	.	.	.	.
8F#\J	.	.	16A/	.	8a/	.	8d\	in	8a\	in	8cc\	in
.	.	.	16d/JJ	.	.	.	.	.	.	.	.	.
!	!	!	!	!	!LO:LB:g=original	!	!	!	!	!	!	!
=84	=84	=84	=84	=84	=84	=84	=84	=84	=84	=84	=84	=84
8G\L	.	.	16B/LL	.	8.b\L	.	4.d\	Sae-	4.g\	Sae-	4.b\	Sae-
.	.	.	16d/	.	.	.	.	.	.	.	.	.
8G\	.	.	16B/	.	.	.	.	.	.	.	.	.
.	.	.	16d/	.	(32dd\LL	.	.	.	.	.	.	.
.	.	.	.	.	32cc\JJJ)	.	.	.	.	.	.	.
8G\	.	.	16B/	.	8b\L	.	.	.	.	.	.	.
.	.	.	16d/	.	.	.	.	.	.	.	.	.
8G\	.	.	16B/	.	8gg\	.	8d\	-cu-	8b\	-cu-	8gg\	-cu-
.	.	.	16d/	.	.	.	.	.	.	.	.	.
!	!	!	!	!	!	!	!	!	!	!	!LO:LB:g=original	!
8G\	.	.	16B/	.	8b\	.	4d\	-la	4b\	-la	4gg\	-la
.	.	.	16d/	.	.	.	.	.	.	.	.	.
8G\J	.	.	16B/	.	8gg\J	.	.	.	.	.	.	.
.	.	.	16d/JJ	.	.	.	.	.	.	.	.	.
!	!	!	!LO:LB:g=original	!	!	!	!LO:LB:g=original	!	!	!	!	!
=85	=85	=85	=85	=85	=85	=85	=85	=85	=85	=85	=85	=85
8E\L	.	.	16B/LL	.	(8.b\L	.	2e\	Sae-	2b\	Sae-	2gg\	Sae-
.	.	.	16g/	.	.	.	.	.	.	.	.	.
8E\	.	.	16B/	.	.	.	.	.	.	.	.	.
.	.	.	16g/	.	32dd\LL	.	.	.	.	.	.	.
.	.	.	.	.	32cc\JJJ)	.	.	.	.	.	.	.
8E\	.	.	16B/	.	8b\L	.	.	.	.	.	.	.
.	.	.	16g/	.	.	.	.	.	.	.	.	.
8E\	.	.	16B/	.	8gg\	.	.	.	.	.	.	.
.	.	.	16g/	.	.	.	.	.	.	.	.	.
8E\	.	.	16B/	.	8b\	.	4e\	-cu-	4b\	-cu-	4gg\	-cu-
.	.	.	16g/	.	.	.	.	.	.	.	.	.
8E\J	.	.	16B/	.	8ff#\J	.	.	.	.	.	.	.
.	.	.	16g/JJ	.	.	.	.	.	.	.	.	.
*	*	*	*Xtremolo	*	*	*	*	*	*	*	*	*
*Xtremolo	*	*	*	*	*	*	*	*	*	*	*	*
*Xtremolo	*	*	*Xtremolo	*	*	*	*	*	*	*	*	*
=86	=86	=86	=86	=86	=86	=86	=86	=86	=86	=86	=86	=86
8C/L	6:	.	16a/LL	.	8.ee\L	.	8e\	-lo-	8a\	-lo-	8aa\	-lo-
.	.	.	16cc/	.	.	.	.	.	.	.	.	.
8C/	.	.	16b/	.	.	.	8e\	-rum	8a\	-rum	8aa\	-rum
.	.	.	16a/JJ	.	(32dd\LL	.	.	.	.	.	.	.
.	.	.	.	.	32cc\JJJ)	.	.	.	.	.	.	.
!	!	!	!	!	!	!	!	!	!LO:LB:g=original	!	!	!
8D/	4:	.	8g/L	.	8b\L	.	2d\	A-	4b\	A-	4gg\	A-
8D/J	.	.	8b/	.	8gg\	.	.	.	.	.	.	.
8DD/L	#	.	8f#/	.	8a\	.	.	.	4a\	.	4ff#\	.
8DD/J	.	.	8a/J	.	8ff#\J	.	.	.	.	.	.	.
!LO:LB:g=original	!	!	!	!	!	!	!	!	!	!	!	!
=87	=87	=87	=87	=87	=87	=87	=87	=87	=87	=87	=87	=87
4GG/	.	.	8b\L	.	8gg\L	.	4d\	-men	4b\	-men	4gg\	-men
.	.	.	16dd\L	.	16bb\L	.	.	.	.	.	.	.
.	.	.	16b\JJ	.	16gg\JJ	.	.	.	.	.	.	.
!	!	!	!	!	!LO:TX:a:t=P:problem=mixed beam	!	!	!	!	!	!	!
4C/	6 5	.	8a\L	.	8a/L	.	4e\	A-	2a\	A-	4gg\	A-
.	.	.	8gg\	.	8gg\	.	.	.	.	.	.	.
4D/	.	.	8a\	.	8a/	.	4d\	.	.	.	4ff#\	.
.	.	.	8ff#\J	.	8ff#\J	.	.	.	.	.	.	.
=88	=88	=88	=88	=88	=88	=88	=88	=88	=88	=88	=88	=88
4GG/	.	.	4d/ 4b 4gg	.	4d/ 4b 4gg	.	4d\	-men	4b\	-men	4gg\	-men
4r	.	.	2r	.	2r	.	4r	.	4r	.	4r	.
4r	.	.	.	.	.	.	4r	.	4r	.	4r	.
==	==	==	==	==	==	==	==	==	==	==	==	==
*-	*-	*-	*-	*-	*-	*-	*-	*-	*-	*-	*-	*-
!!!system-decoration: [(g1)][(g2)]g3
!!!RDF**dynam: < = cresc
!!!RDF**dynam: f= for
!!!RDF**dynam: p=pia
!!!ENC: Anna Matuszewska
!!!END: 2020-10-28
!!!ENC: Kamil Watkowski
!!!END: 2020-06-17
